gama.ui.shared/icons_svg/dark/navigator/project.close2.svg

<svg height="25" viewBox="-166.997 -3555.419 25 25" width="25" xmlns="http://www.w3.org/2000/svg"><g fill="none"><path d="m-162.65697-3554.9187h16.32c2.12077 0 3.84 1.7192 3.84 3.84v16.32c0 2.1207-1.71923 3.84-3.84 3.84h-16.32c-2.12077 0-3.84-1.7193-3.84-3.84v-16.32c0-2.1208 1.71923-3.84 3.84-3.84z" fill="#666"/><path d="m-162.65697-3554.9187h16.32c2.12077 0 3.84 1.7192 3.84 3.84v16.32c0 2.1207-1.71923 3.84-3.84 3.84h-16.32c-2.12077 0-3.84-1.7193-3.84-3.84v-16.32c0-2.1208 1.71923-3.84 3.84-3.84z" stroke="#fff" stroke-linecap="round" stroke-linejoin="round" stroke-width=".25"/><g fill="#ff797c"><path d="m-155.25806-3543.5937 1.71716 1.7172c.15621.1562.15621.4095 0 .5655-.1562.1563-.40947.1563-.56568 0l-1.71716-1.717-1.71716 1.717c-.1562.1563-.40947.1563-.56568 0-.15622-.156-.15622-.4093 0-.5655l1.71715-1.7172-1.71715-1.7173c-.15622-.156-.15622-.4093 0-.5655.15621-.1563.40948-.1563.56568 0l1.71716 1.7171 1.71716-1.7171c.15621-.1563.40948-.1563.56568 0 .15621.1562.15621.4095 0 .5655zm-6.56568-7.2h5.2c.88365 0 1.6.7163 1.6 1.6 0 .4417.35817.8.8.8h4.4c1.10457 0 2 .8954 2 2v6.4c0 1.1047-.89543 2-2 2h-12c-1.10457 0-2-.8953-2-2v-8.8c0-1.1046.89543-2 2-2zm0 .8c-.66274 0-1.2.5373-1.2 1.2v8.8c0 .6627.53726 1.2 1.2 1.2h12c.66274 0 1.2-.5373 1.2-1.2v-6.4c0-.6627-.53726-1.2-1.2-1.2h-4.4c-.88366 0-1.6-.7163-1.6-1.6 0-.4418-.35817-.8-.8-.8z"/><path d="m-153.87429-3537.584c.07337.086.18239.1403.30409.1403.12172 0 .23074-.0543.3041-.1403zm-7.29591 0v.5403c0 1.1047.89544 2 2 2h12.00001c1.10457 0 2-.8953 2-2v-6.4c0-1.1046-.89543-2-2-2h-.31836v.8h.31836c.66274 0 1.2.5373 1.2 1.2v6.4c0 .6627-.53726 1.2-1.2 1.2h-12.00001c-.66273 0-1.2-.5373-1.2-1.2v-.5403z"/></g></g></svg>

<?xml version="1.0" encoding="UTF-8" standalone="no"?>
<!DOCTYPE svg PUBLIC "-//W3C//DTD SVG 1.1//EN" "http://www.w3.org/Graphics/SVG/1.1/DTD/svg11.dtd">
<svg xmlns:dc="http://purl.org/dc/elements/1.1/" version="1.1" xmlns="http://www.w3.org/2000/svg" xmlns:xl="http://www.w3.org/1999/xlink" viewBox="-166.99697 -3555.4187 25 25" width="25" height="25">
  <defs/>
  <g id="SOURCES" stroke="none" stroke-dasharray="none" fill-opacity="1" stroke-opacity="1" fill="none">
    <title>SOURCES</title>
    <g id="SOURCES_Dark">
      <title>Dark</title>
      <g id="Graphic_11713">
        <title>views/view.other</title>
        <path d="M -162.65697 -3554.9187 L -146.33697 -3554.9187 C -144.2162 -3554.9187 -142.49697 -3553.1995 -142.49697 -3551.0787 L -142.49697 -3534.7587 C -142.49697 -3532.638 -144.2162 -3530.9187 -146.33697 -3530.9187 L -162.65697 -3530.9187 C -164.77774 -3530.9187 -166.49697 -3532.638 -166.49697 -3534.7587 L -166.49697 -3551.0787 C -166.49697 -3553.1995 -164.77774 -3554.9187 -162.65697 -3554.9187 Z" fill="#666"/>
        <path d="M -162.65697 -3554.9187 L -146.33697 -3554.9187 C -144.2162 -3554.9187 -142.49697 -3553.1995 -142.49697 -3551.0787 L -142.49697 -3534.7587 C -142.49697 -3532.638 -144.2162 -3530.9187 -146.33697 -3530.9187 L -162.65697 -3530.9187 C -164.77774 -3530.9187 -166.49697 -3532.638 -166.49697 -3534.7587 L -166.49697 -3551.0787 C -166.49697 -3553.1995 -164.77774 -3554.9187 -162.65697 -3554.9187 Z" stroke="white" stroke-linecap="round" stroke-linejoin="round" stroke-width=".25"/>
      </g>
      <g id="Graphic_11712">
        <path d="M -155.25806 -3543.5937 L -153.5409 -3541.8765 C -153.38469 -3541.7203 -153.38469 -3541.467 -153.5409 -3541.311 C -153.6971 -3541.1547 -153.95037 -3541.1547 -154.10658 -3541.311 L -155.82374 -3543.028 L -157.5409 -3541.311 C -157.6971 -3541.1547 -157.95037 -3541.1547 -158.10658 -3541.311 C -158.2628 -3541.467 -158.2628 -3541.7203 -158.10658 -3541.8765 L -156.38943 -3543.5937 L -158.10658 -3545.311 C -158.2628 -3545.467 -158.2628 -3545.7203 -158.10658 -3545.8765 C -157.95037 -3546.0328 -157.6971 -3546.0328 -157.5409 -3545.8765 L -155.82374 -3544.1594 L -154.10658 -3545.8765 C -153.95037 -3546.0328 -153.6971 -3546.0328 -153.5409 -3545.8765 C -153.38469 -3545.7203 -153.38469 -3545.467 -153.5409 -3545.311 Z M -161.82374 -3550.7937 L -156.62374 -3550.7937 C -155.74009 -3550.7937 -155.02374 -3550.0774 -155.02374 -3549.1937 C -155.02374 -3548.752 -154.66557 -3548.3937 -154.22374 -3548.3937 L -149.82374 -3548.3937 C -148.71917 -3548.3937 -147.82374 -3547.4983 -147.82374 -3546.3937 L -147.82374 -3539.9937 C -147.82374 -3538.889 -148.71917 -3537.9937 -149.82374 -3537.9937 L -161.82374 -3537.9937 C -162.92831 -3537.9937 -163.82374 -3538.889 -163.82374 -3539.9937 L -163.82374 -3548.7937 C -163.82374 -3549.8983 -162.92831 -3550.7937 -161.82374 -3550.7937 Z M -161.82374 -3549.9937 C -162.48648 -3549.9937 -163.02374 -3549.4564 -163.02374 -3548.7937 L -163.02374 -3539.9937 C -163.02374 -3539.331 -162.48648 -3538.7937 -161.82374 -3538.7937 L -149.82374 -3538.7937 C -149.161 -3538.7937 -148.62374 -3539.331 -148.62374 -3539.9937 L -148.62374 -3546.3937 C -148.62374 -3547.0564 -149.161 -3547.5937 -149.82374 -3547.5937 L -154.22374 -3547.5937 C -155.1074 -3547.5937 -155.82374 -3548.31 -155.82374 -3549.1937 C -155.82374 -3549.6355 -156.18191 -3549.9937 -156.62374 -3549.9937 Z" fill="#ff797c"/>
      </g>
      <g id="Graphic_11711">
        <path d="M -153.87429 -3537.584 C -153.80092 -3537.498 -153.6919 -3537.4437 -153.5702 -3537.4437 C -153.44848 -3537.4437 -153.33946 -3537.498 -153.2661 -3537.584 Z M -161.1702 -3537.584 L -161.1702 -3537.0437 C -161.1702 -3535.939 -160.27476 -3535.0437 -159.1702 -3535.0437 L -147.17019 -3535.0437 C -146.06562 -3535.0437 -145.17019 -3535.939 -145.17019 -3537.0437 L -145.17019 -3543.4437 C -145.17019 -3544.5483 -146.06562 -3545.4437 -147.17019 -3545.4437 L -147.48855 -3545.4437 L -147.48855 -3544.6437 L -147.17019 -3544.6437 C -146.50745 -3544.6437 -145.97019 -3544.1064 -145.97019 -3543.4437 L -145.97019 -3537.0437 C -145.97019 -3536.381 -146.50745 -3535.8437 -147.17019 -3535.8437 L -159.1702 -3535.8437 C -159.83293 -3535.8437 -160.3702 -3536.381 -160.3702 -3537.0437 L -160.3702 -3537.584 Z" fill="#ff797c"/>
      </g>
    </g>
  </g>
</svg>
